X: 1
T:Hand Down the Tackle
R:Reel
O:Ireland
M:4/4
K:D
d2 (3DDD FDFA|dfaf gfec|\
d2 (3DDD FDFA|GFEF GABc|\
dD (3DDD FDFA|dfaf g2fe|
d2dc dcBA|G2EF GABc::\
d2fd Adfd|Adfd BABc|
d2fd Adfd|B2B2 BABc|\
d2fd Adfd|Adfd g2fg|agfe dcBA|G2EF GABc:|
